coreui/free/cil-fastfood.svg

<svg xmlns="http://www.w3.org/2000/svg" viewBox="0 0 512 512">
  <path fill="var(--ci-primary-color, currentColor)" d="M474.183,120H360V40H328v80H200v32h17.92l6.154,48H112a80.091,80.091,0,0,0-80,80v16H312V280a79.508,79.508,0,0,0-8-34.846,80.248,80.248,0,0,0-47.155-41.185L250.183,152H437.817l-35.9,280H32v32H430.08l40-312H496V120ZM277.258,264H66.742A48.083,48.083,0,0,1,112,232H232A48.083,48.083,0,0,1,277.258,264Z" class="ci-primary"/>
  <polygon fill="var(--ci-primary-color, currentColor)" points="304 352 312 352 312 320 304 320 184 320 32 320 32 352 184 352 304 352" class="ci-primary"/>
  <polygon fill="var(--ci-primary-color, currentColor)" points="304 408 312 408 312 376 304 376 184 376 32 376 32 408 184 408 304 408" class="ci-primary"/>
</svg>

<svg viewBox="0 0 512 512" xmlns="http://www.w3.org/2000/svg"><g><path d="M474.183 120h-114.19V40h-32v80h-128v32h17.92l6.15 48H111.98h-.001c-44.17.05-79.95 35.83-80 80v16h280v-16 0c.01-12.08-2.73-23.99-8-34.85v0c-9.5-19.55-26.51-34.41-47.16-41.19l-6.67-51.97h187.63l-35.9 280H31.96v32h398.08l40-312h25.92v-32ZM277.258 264H66.73v-.001c6.8-19.17 24.92-31.98 45.25-32h120v0c20.33.02 38.45 12.83 45.25 32Z"/><path d="M304 352l8 0 0-32 -8 0 -120 0 -152 0 0 32 152 0 120 0Z"/><path d="M304 408l8 0 0-32 -8 0 -120 0 -152 0 0 32 152 0 120 0Z"/></g></svg>
